src/svgs/repository.svg

<svg xmlns="http://www.w3.org/2000/svg" viewBox="0 0 24 24" width="512" height="512"><path d="M22 21H2V11h20zm-7-7v2h-5v-2H8v4h9v-4zm5-7H4v2h16zm-2-4H6v2h12z"/></svg>

<svg xmlns="http://www.w3.org/2000/svg" viewBox="0 0 24 24"><path d="M22,21H2V11H22Zm-7-7v2H10V14H8v4h9V14Zm5-7H4V9H20ZM18,3H6V5H18Z"/></svg>
